X:51
T:La belle qui fait la morte
R:Chanson
O:France
B:Le livre des Chansons (Henri Davenson) n°51
Z:<anamnese@caramail.com> -- http://anamnese.fr.st
M:6/8
L:1/8
Q:1/4=140
K:F
C | F2 G A2 B | c3-c2 c | d2 c G2 B | A2-G F3-|F zz c3 |!
A2 c f2 f | d2 d B3 | G2 B d2 d | c2 z F3 | A2 c c2 B |\
A2 G d3 | c2 A B2 G | F6 ||
W:Dessous le rosier blanc la Belle s'y promène
W:Blanche comme la neige, belle comme le jour ;
W:Ce sont trois capitaines, tous trois lui font l'amour.
W:
W:Le plus jeune des trois l'a prise par sa main blanche :
W:"Montez, montez, la Belle, dessus mon cheval gris ;
W:A Paris je vous mène dedans un grand logis."
W:
W:Arrivée à Paris, l'hôtesse lui demande :
W:"Etes-vous ici par force, ou bien pour vos plaisirs ?
W:- Ce sont trois capitaines qui m'ont conduite ici."
W:
W:Vint l'heure du souper, la Belle ne mange guère :
W:"Soupez, soupez, la Belle, prenez votre plaisir :
W:Avec trois capitaines vous passerez la nuit."
W:
W:Au milieu du souper, la Belle tomba morte :
W:"Sonnez, sonnez trompettes, tambours, batetz aux champ !
W:Puisque ma mie est morte, j'en ai le coeur dolent. /.../


